X:1170
T:Bards Legacy.The. JC.211
T:Legacy,The,aka. JC.211
M:6/8
L:1/8
Q:120
S:John Clare,Poet,Helpstone (1793-1864)
R:Air
O:England211
A:Northamptonshire
N:
Z:P Headford
K:C
c2c cGE|g2g gec|c2d ede|A2Bc3|!
c2c cGE|g2g gec|c2d ede|A2Bc3|!
|cegc'2c'|(ba).g (ag).f|ceg c'2c'|(ba)g. a2b|!
c'2c' (bg).e|a2a gec|c2d ede|A2Bc3|]
W:Song text exists. See Deacon.


